svgs/thin/chess-clock-flip.svg

<svg xmlns="http://www.w3.org/2000/svg" viewBox="0 0 640 512"><!-- Font Awesome Pro 6.0.0-alpha2 by @fontawesome - https://fontawesome.com License - https://fontawesome.com/license (Commercial License) --><path d="M352 304C352 365.855 402.145 416 464 416S576 365.855 576 304S525.855 192 464 192S352 242.145 352 304ZM368 304C368 251.064 411.066 208 464 208S560 251.064 560 304C560 356.934 516.934 400 464 400S368 356.934 368 304ZM176 192C114.145 192 64 242.145 64 304S114.145 416 176 416S288 365.855 288 304S237.855 192 176 192ZM176 400C123.066 400 80 356.934 80 304C80 251.064 123.066 208 176 208S272 251.064 272 304C272 356.934 228.934 400 176 400ZM0 192L0 416C0 451.346 28.652 480 64 480H576C611.348 480 640 451.346 640 416V192C640 156.652 611.348 128 576 128H472V48H536C540.406 48 544 44.422 544 40S540.406 32 536 32H392C387.594 32 384 35.578 384 40S387.594 48 392 48H456V128H64C28.652 128 0 156.652 0 192ZM16 192C16 165.533 37.531 144 64 144H576C602.469 144 624 165.533 624 192V416C624 442.467 602.469 464 576 464H64C37.531 464 16 442.467 16 416V192ZM256 88C256 83.578 252.406 80 248 80H104C99.594 80 96 83.578 96 88S99.594 96 104 96H248C252.406 96 256 92.422 256 88ZM456 240V304C456 308.422 459.594 312 464 312S472 308.422 472 304V240C472 235.578 468.406 232 464 232S456 235.578 456 240ZM215.594 253.094L170.344 298.344C167.219 301.469 167.219 306.531 170.344 309.656C171.906 311.219 173.938 312 176 312S180.094 311.219 181.656 309.656L226.906 264.406C230.031 261.281 230.031 256.219 226.906 253.094S218.719 249.969 215.594 253.094Z"/></svg>

<svg xmlns="http://www.w3.org/2000/svg" viewBox="0 0 640 512"><!--! Font Awesome Pro 6.4.0 by @fontawesome - https://fontawesome.com License - https://fontawesome.com/license (Commercial License) Copyright 2023 Fonticons, Inc. --><path d="M392 32c-4.4 0-8 3.6-8 8s3.6 8 8 8h64v80H64c-35.3 0-64 28.7-64 64V416c0 35.3 28.7 64 64 64H576c35.3 0 64-28.7 64-64V192c0-35.3-28.7-64-64-64H472V48h64c4.4 0 8-3.6 8-8s-3.6-8-8-8H464 392zm72 112H576c26.5 0 48 21.5 48 48V416c0 26.5-21.5 48-48 48H64c-26.5 0-48-21.5-48-48V192c0-26.5 21.5-48 48-48H464zM96 88c0 4.4 3.6 8 8 8H248c4.4 0 8-3.6 8-8s-3.6-8-8-8H104c-4.4 0-8 3.6-8 8zM464 208a96 96 0 1 1 0 192 96 96 0 1 1 0-192zm0 208a112 112 0 1 0 0-224 112 112 0 1 0 0 224zM108.1 236.1A96 96 0 1 1 243.9 371.9 96 96 0 1 1 108.1 236.1zM255.2 383.2A112 112 0 1 0 96.8 224.8 112 112 0 1 0 255.2 383.2zM464 240c-4.4 0-8 3.6-8 8v56c0 4.4 3.6 8 8 8s8-3.6 8-8V248c0-4.4-3.6-8-8-8zM221.3 270.1c3.1-3.1 3.1-8.2 0-11.3s-8.2-3.1-11.3 0l-39.6 39.6c-3.1 3.1-3.1 8.2 0 11.3s8.2 3.1 11.3 0l39.6-39.6z"/></svg>
